!!!OTL: Die entfuehrte Graserin.
!!!OTL-incipit: Wollte's Gott Graeserin grasene gehn,
!!!ARE: Europa, Mitteleuropa, Deutschland / France, Lothringen
!!!YOR: 2, S. 148
!!    1934 aufgezeichnet
!!!SCT: Q0045A
!!!TXL: @@DE
!!!YEM: Copyright 1995, estate of Helmut Schaffrath.
**kern	**text
*ICvox	*
*M2/4	*
*k[b-]	*
*F:	*
=1	=1
{8.f	1._Woll-
16f	-te's
4f	Gott
=2	=2
8.cc	Grä-
16cc	-ſe-
4dd	-rin
=3	=3
4cc	gra-
8b-	-ſe-
8a	-ne
=4	=4
4g;	gehn,
8r;}	.
{8cc	ſie
=5	=5
8ccL	graſt
8b-J	.
8aL	wohl
8gJ	.
=6	=6
4f	in
4g	dem
=7	=7
4d	grünen
4d	.
=8	=8
4c;	Klee,
8r}	.
{8c	ſie
=9	=9
(8cqq	.
4f)	graſt
4f	wohl
=10	=10
4g	in
8ccL	dem
8b-J	.
=11	=11
4a	grünen,
4a	.
=12	=12
(8gqq	.
2a)	ja
=13	=13
8aL	grü-
8gJ	.
8gL	-nen
8aJ	.
=14	=14
2f}	Klee.
==	==
!!!AGN: Ballade, Pastorelle, Entfuehrung, Tod
!! Kleinere Strophenvarianten abgedruckt. Verzierungen (Vorschlaege).
!!    (Text) - Anhaengsel an der dritten Zeile.
!!!ONB: ESAC (Essen Associative Code) Database: BALLADE
!!!AMT: simple duple
!!!AIN: vox
!!!EED: Helmut Schaffrath
!!!EEV: 1.0
!!@@COMMENT:"Mel. und 1. Str. : Umſchrift nach Pl. JA 1395 (Nr. 3). 1934.
!!Abriger Text: Pinck, Weiſen 3 Nr. 21. 1929."
!!@@END:
!!!source: Deutsche Volkslieder mit ihren Melodien. Herausgegeben vom Deutschen Volksliedarchiv. Zweiter Band Balladen. Berlin 1939.
!!!page: 148
!!!ENC: Anna Maria Matuszewska
!!!EEV: 2025/02/17
*-	*-
